X:1
T:C Major Jacob French, 1793
T:Isaac Watts, 1719 (Psalm 92, Part 1)  88. 88. (L. M.)
T:Declaration
T:Transcribed from Harmony of Harmony, 1802
%%score [ 1 2 3 4 ]
L:1/8
Q:1/4=150
M:4/4
K:C
V:1 treble nm="Voice"
V:2 treble nm="Voice"
V:3 treble-8 nm="Tenor"
V:4 bass nm="Bass"
V:1
 c4 e2 c2 | f2 ef g2 cd | (e3 d c2) d2 | (edcB A2) G2 | A2 A2 B2 B2 | c8- | c8 | z8 | z8 | %9
w: 1.~Sweet is the|day of * sa- cred *|rest;~ _ _ No|mor- * * * * tal|care shall sieze my|breast;~|_|||
w: 2.~My heart shall|tri- umph * in my *|Lord,~ _ _ And|bless~ _ _ _ _ his|works, and bless his|word;~|_|||
 z4 z2 d2 | e2 e2 e2 d2 | c4 (d2 c2) | B6 d2 | e2 d2 c2 dB | c4 d4 | e8 |] %16
w: 1.~O|may my heart in|tune be *|found, Like|Da- vid's harp of *|sol- emn|sound.|
w: 2.~Thy|works of grace, how|bright they *|shine! How|deep the coun- sel! *|how di-|vine!|
V:2
 E4 G2 E2 | cB A2 B2 A2 | G6 GF | E6 ED | C2 C2 D2 D2 | E8- | E8- | E6 G2 | G2 G2 G2 G2 | G4 G4 | %10
w: |||||||* 1.~O|may my heart in|tune be|
w: |||||||* 2.~Thy|works of grace, how|bright they|
 E6 E2 | F2 F2 A2 A2 | G2 G2 G2 [FA]2 | G2 G2 G2 F2 | [EG]4 [EG]4 | E8 |] %16
w: found, Like|Da- vid's harp of|sol- emn sound, Like|Da- vid's harp of|sol- emn|sound.|
w: shine! How|deep the coun- sel!|how di- vine! How|deep the coun- sel!|how di-|vine!|
V:3
 G4 c2 G2 | AB c2 de f2 | e6 d2 | (c2 G2 c2) B2 | A2 A2 F2 F2 | G8- | G6 G2 | c2 c2 c2 d2 | e4 e4 | %9
w: 1.~Sweet is the|day * of sa- * cred|rest; No|mor- * * tal|care shall sieze my|breast;~|_ O|may my heart in|tune be|
w: 2.~My heart shall|tri- * umph in * my|Lord; And|bless~ _ _ his|works, and bless his|word;~|_ Thy|works of grace, how|bright they|
 d4 d4 | c2 c2 c2 B2 | A4 A4 | G6 G2 | c2 d2 e2 df | e4 d4 | c8 |] %16
w: found, like|Da- vid's harp of|sol- emn|sound, Like|Da- vid's harp of *|sol- emn|sound.|
w: shine! How|deep thy coun- sels!|how di-|vine! How|deep thy coun- sels! *|how di-|vine!|
V:4
 C,4 C,2 E,2 | F,G, A,2 G,A, B,2 | C6 B,2 | (A,2 G,2 A,2) E,2 | F,2 F,E, D,2 D,2 | C,6 C,D, | %6
w: |||||* 1.~O *|
w: |||||* 2.~Thy *|
 E,2 E,2 E,2 G,2 | A,4 G,4 | C4 C4 | G,2 G,2 G,2 G,2 | C,4 E,4 | F,4 D,4 | E,2 E,2 E,2 D,2 | %13
w: may my heart in|tune be|found, Like|Da- vid's harp of|sol- emn|sound, Like|Da- vid's harp of|
w: works of grace, how|bright they|shine! How|deep the coun- sels!|How di-|vine! How|deep the coun- sel!|
 (C,2 G,2 C2 B,D | C4) G,4 | C,8 |] %16
w: sol- * * * *|* emn|sound.|
w: how~ _ _ _ _|_ di-|vine!|

